_includes/icons/ios-elephant.svg

<svg fill="#666" height="50" viewBox="0 0 50 50" width="50" xmlns="http://www.w3.org/2000/svg"><path d="m27 3c-1.359375 0-2.554687.546875-3.65625 1.28125-.050781-.007812-5.042969-.777344-8.5-.28125-3.054687.4375-6.277344 1.574219-8.75 4.1875s-4.09375 6.65625-4.09375 12.59375c0 5.566406 2.015625 12.3125 2.0625 12.46875 0 0 .03125.09375.03125.09375l.90625 11.75c.046875.515625.480469.910156 1 .90625h7c.519531.003906.953125-.390625 1-.90625l.90625-10.40625c.769531.121094 1.789063.3125 3.09375.3125 1.3125 0 2.316406-.234375 3.09375-.375l.90625 10.46875c.046875.515625.480469.910156 1 .90625h7c.550781 0 1-.449219 1-1 0-.179687 0-.328125 0-.5.035156-6.769531.722656-10.253906 1.53125-12.75.703125-2.171875 1.496094-3.867187 2.09375-6.1875 1.578125.660156 3.21875 1.136719 4.28125 1.78125 1.335938.808594 2.175781 1.816406 2.09375 4.8125-.027344.992188-.230469 1.800781-.5 2.25s-.457031.59375-1.03125.59375c-.5 0-1.054687-.414062-1.5-.96875-.445312-.554687-.6875-1.09375-.6875-1.09375-.117187-.28125-.351562-.496094-.644531-.578125-.292969-.085937-.605469-.035156-.855469.140625l-2.34375 1.6875c-.359375.265625-.5.738281-.34375 1.15625 0 0 1.863281 4.65625 6.90625 4.65625 1.585938 0 2.984375-.734375 4.03125-1.90625s1.800781-2.742187 2.375-4.65625c1.152344-3.824219 1.59375-9 1.59375-14.84375 0-5.988281-1.800781-9.933594-4.3125-12.34375s-5.652344-3.25-8.15625-3.25c-2.425781 0-3.800781.785156-4.5 1.25-.660156-.488281-1.886719-1.25-4.03125-1.25zm0 2c2.171875 0 3.3125 1.125 3.3125 1.125.363281.363281.945313.390625 1.34375.0625 0 0 1.316406-1.1875 3.875-1.1875 2.0625 0 4.675781.695313 6.75 2.6875 2.074219 1.992188 3.71875 5.3125 3.71875 10.90625 0 5.738281-.453125 10.773438-1.5 14.25-.523437 1.738281-1.183594 3.09375-1.9375 3.9375s-1.539062 1.21875-2.5625 1.21875c-3.125 0-4.21875-1.917969-4.625-2.75l.6875-.5c.144531.238281.128906.261719.34375.53125.625.78125 1.636719 1.71875 3.0625 1.71875 1.191406 0 2.203125-.648437 2.75-1.5625.546875-.914062.75-2.050781.78125-3.25.09375-3.464844-1.269531-5.476562-3.0625-6.5625-1.792969-1.085937-3.824219-1.449219-5.46875-2.3125-.277344-.144531-.605469-.148437-.890625-.011719-.28125.132813-.484375.394532-.546875.699219-.527344 2.816406-1.511719 4.359375-2.40625 7.125-.800781 2.472656-1.402344 6.050781-1.53125 11.9375-.476562.132813-.839844.472656-1 .9375h-.1875c-.203125-.585937-.75-1-1.40625-1s-1.203125.414063-1.40625 1h-1.1875l-.90625-10.5625c-.023437-.285156-.164062-.546875-.390625-.71875-.226562-.171875-.515625-.242187-.796875-.1875 0 0-2.433594.46875-3.8125.46875-1.40625 0-3.84375-.40625-3.84375-.40625-.273437-.042969-.558594.027344-.777344.199219s-.355468.429687-.378906.707031l-.8125 9.53125c-.519531.105469-.921875.476563-1.09375.96875h-.1875c-.203125-.585937-.75-1-1.40625-1s-1.203125.414063-1.40625 1h-1.15625l-.875-11.03125c-.003906-.0625-.015625-.125-.03125-.1875 0 0-2.03125-6.878906-2.03125-12 0-5.578125 1.460938-9.03125 3.53125-11.21875 2.070313-2.1875 4.851563-3.164062 7.625-3.5625 1.960938-.28125 4.390625-.113281 6.09375.0625-1.378906 1.699219-2.25 3.863281-2.25 6 0 7.769531 3.628906 14.785156 8.625 16.875.433594.167969.925781.011719 1.1875-.375.234375-.347656.472656-.8125.78125-1.46875s.675781-1.457031 1.0625-2.375c.773438-1.839844 1.636719-4.058594 2.3125-6.03125.179688-.527344-.097656-1.101562-.625-1.28125-.527344-.179687-1.101562.097656-1.28125.625-.652344 1.910156-1.492187 4.105469-2.25 5.90625-.378906.902344-.738281 1.6875-1.03125 2.3125-.066406.144531-.0625.15625-.125.28125-3.484375-2.042969-6.65625-7.820312-6.65625-14.46875 0-1.601562.707031-3.441406 1.84375-4.8125s2.644531-2.25 4.15625-2.25zm14 10c-.554687 0-1 .449219-1 1s.445313 1 1 1c.554688 0 1-.449219 1-1s-.445312-1-1-1z"/></svg>

<svg xmlns="http://www.w3.org/2000/svg" viewBox="0 0 50 50" width="50" height="50" fill="#666"><path d="M 27 3 C 25.640625 3 24.445313 3.546875 23.34375 4.28125 C 23.292969 4.273438 18.300781 3.503906 14.84375 4 C 11.789063 4.4375 8.566406 5.574219 6.09375 8.1875 C 3.621094 10.800781 2 14.84375 2 20.78125 C 2 26.347656 4.015625 33.09375 4.0625 33.25 C 4.0625 33.25 4.09375 33.34375 4.09375 33.34375 L 5 45.09375 C 5.046875 45.609375 5.480469 46.003906 6 46 L 13 46 C 13.519531 46.003906 13.953125 45.609375 14 45.09375 L 14.90625 34.6875 C 15.675781 34.808594 16.695313 35 18 35 C 19.3125 35 20.316406 34.765625 21.09375 34.625 L 22 45.09375 C 22.046875 45.609375 22.480469 46.003906 23 46 L 30 46 C 30.550781 46 31 45.550781 31 45 C 31 44.820313 31 44.671875 31 44.5 C 31.035156 37.730469 31.722656 34.246094 32.53125 31.75 C 33.234375 29.578125 34.027344 27.882813 34.625 25.5625 C 36.203125 26.222656 37.84375 26.699219 38.90625 27.34375 C 40.242188 28.152344 41.082031 29.160156 41 32.15625 C 40.972656 33.148438 40.769531 33.957031 40.5 34.40625 C 40.230469 34.855469 40.042969 35 39.46875 35 C 38.96875 35 38.414063 34.585938 37.96875 34.03125 C 37.523438 33.476563 37.28125 32.9375 37.28125 32.9375 C 37.164063 32.65625 36.929688 32.441406 36.636719 32.359375 C 36.34375 32.273438 36.03125 32.324219 35.78125 32.5 L 33.4375 34.1875 C 33.078125 34.453125 32.9375 34.925781 33.09375 35.34375 C 33.09375 35.34375 34.957031 40 40 40 C 41.585938 40 42.984375 39.265625 44.03125 38.09375 C 45.078125 36.921875 45.832031 35.351563 46.40625 33.4375 C 47.558594 29.613281 48 24.4375 48 18.59375 C 48 12.605469 46.199219 8.660156 43.6875 6.25 C 41.175781 3.839844 38.035156 3 35.53125 3 C 33.105469 3 31.730469 3.785156 31.03125 4.25 C 30.371094 3.761719 29.144531 3 27 3 Z M 27 5 C 29.171875 5 30.3125 6.125 30.3125 6.125 C 30.675781 6.488281 31.257813 6.515625 31.65625 6.1875 C 31.65625 6.1875 32.972656 5 35.53125 5 C 37.59375 5 40.207031 5.695313 42.28125 7.6875 C 44.355469 9.679688 46 13 46 18.59375 C 46 24.332031 45.546875 29.367188 44.5 32.84375 C 43.976563 34.582031 43.316406 35.9375 42.5625 36.78125 C 41.808594 37.625 41.023438 38 40 38 C 36.875 38 35.78125 36.082031 35.375 35.25 L 36.0625 34.75 C 36.207031 34.988281 36.191406 35.011719 36.40625 35.28125 C 37.03125 36.0625 38.042969 37 39.46875 37 C 40.660156 37 41.671875 36.351563 42.21875 35.4375 C 42.765625 34.523438 42.96875 33.386719 43 32.1875 C 43.09375 28.722656 41.730469 26.710938 39.9375 25.625 C 38.144531 24.539063 36.113281 24.175781 34.46875 23.3125 C 34.191406 23.167969 33.863281 23.164063 33.578125 23.300781 C 33.296875 23.433594 33.09375 23.695313 33.03125 24 C 32.503906 26.816406 31.519531 28.359375 30.625 31.125 C 29.824219 33.597656 29.222656 37.175781 29.09375 43.0625 C 28.617188 43.195313 28.253906 43.535156 28.09375 44 L 27.90625 44 C 27.703125 43.414063 27.15625 43 26.5 43 C 25.84375 43 25.296875 43.414063 25.09375 44 L 23.90625 44 L 23 33.4375 C 22.976563 33.152344 22.835938 32.890625 22.609375 32.71875 C 22.382813 32.546875 22.09375 32.476563 21.8125 32.53125 C 21.8125 32.53125 19.378906 33 18 33 C 16.59375 33 14.15625 32.59375 14.15625 32.59375 C 13.882813 32.550781 13.597656 32.621094 13.378906 32.792969 C 13.160156 32.964844 13.023438 33.222656 13 33.5 L 12.1875 43.03125 C 11.667969 43.136719 11.265625 43.507813 11.09375 44 L 10.90625 44 C 10.703125 43.414063 10.15625 43 9.5 43 C 8.84375 43 8.296875 43.414063 8.09375 44 L 6.9375 44 L 6.0625 32.96875 C 6.058594 32.90625 6.046875 32.84375 6.03125 32.78125 C 6.03125 32.78125 4 25.902344 4 20.78125 C 4 15.203125 5.460938 11.75 7.53125 9.5625 C 9.601563 7.375 12.382813 6.398438 15.15625 6 C 17.117188 5.71875 19.546875 5.886719 21.25 6.0625 C 19.871094 7.761719 19 9.925781 19 12.0625 C 19 19.832031 22.628906 26.847656 27.625 28.9375 C 28.058594 29.105469 28.550781 28.949219 28.8125 28.5625 C 29.046875 28.214844 29.285156 27.75 29.59375 27.09375 C 29.902344 26.4375 30.269531 25.636719 30.65625 24.71875 C 31.429688 22.878906 32.292969 20.660156 32.96875 18.6875 C 33.148438 18.160156 32.871094 17.585938 32.34375 17.40625 C 31.816406 17.226563 31.242188 17.503906 31.0625 18.03125 C 30.410156 19.941406 29.570313 22.136719 28.8125 23.9375 C 28.433594 24.839844 28.074219 25.625 27.78125 26.25 C 27.714844 26.394531 27.71875 26.40625 27.65625 26.53125 C 24.171875 24.488281 21 18.710938 21 12.0625 C 21 10.460938 21.707031 8.621094 22.84375 7.25 C 23.980469 5.878906 25.488281 5 27 5 Z M 41 15 C 40.445313 15 40 15.449219 40 16 C 40 16.550781 40.445313 17 41 17 C 41.554688 17 42 16.550781 42 16 C 42 15.449219 41.554688 15 41 15 Z"/></svg>
